icons/svg/icons8/taxi.svg

<?xml version="1.0" encoding="utf-8"?>
<!-- Generator: Adobe Illustrator 15.0.0, SVG Export Plug-In . SVG Version: 6.00 Build 0)  -->
<!DOCTYPE svg PUBLIC "-//W3C//DTD SVG 1.1//EN" "http://www.w3.org/Graphics/SVG/1.1/DTD/svg11.dtd">
<svg version="1.1" id="Layer_1" xmlns="http://www.w3.org/2000/svg" xmlns:xlink="http://www.w3.org/1999/xlink" x="0px" y="0px"
	 width="26px" height="26px" viewBox="0 0 26 26" enable-background="new 0 0 26 26" xml:space="preserve">
<rect x="902" y="1469" fill="#333333" width="26" height="2"/>
<rect x="902" y="1489" fill="#333333" width="26" height="2"/>
<rect x="906" y="1474" fill="#333333" width="18" height="2"/>
<rect x="902" y="1479" fill="#333333" width="26" height="2"/>
<rect x="906" y="1484" fill="#333333" width="18" height="2"/>
<rect x="902" y="1467" fill="none" width="26" height="26"/>
<path fill="#333333" d="M20,12c-0.635-1.967-1.344-3-3-3H9c-1.656,0-2.342,1.002-3,3s-2,6-2,6h18C22,18,20.64,13.981,20,12z
	 M6.304,17.533c0,0,1.299-4.007,1.596-4.907C8.436,11,8.66,11,9,11h8c0.321,0,0.576,0,1.097,1.614
	c0.289,0.896,1.648,4.919,1.648,4.919H6.304z"/>
<rect fill="none" width="26" height="26"/>
<path fill="#333333" d="M8,23v2c0,0.552-0.448,1-1,1H5c-0.552,0-1-0.448-1-1v-2H8z"/>
<path fill="#333333" d="M22,23v2c0,0.552-0.448,1-1,1h-2c-0.552,0-1-0.448-1-1v-2H22z"/>
<path fill="#333333" d="M10,10V8c0-0.552,0.448-1,1-1h4c0.552,0,1,0.448,1,1v2H10z"/>
<path fill="#333333" d="M22,17H4c-0.551,0-1,0.449-1,1v5c0,0.551,0.449,1,1,1h3h12h3c0.551,0,1-0.449,1-1v-5
	C23,17.449,22.551,17,22,17z M6.5,22.266c-0.976,0-1.766-0.79-1.766-1.766s0.79-1.766,1.766-1.766c0.975,0,1.766,0.79,1.766,1.766
	S7.475,22.266,6.5,22.266z M19.5,22.266c-0.976,0-1.766-0.79-1.766-1.766s0.79-1.766,1.766-1.766c0.975,0,1.766,0.79,1.766,1.766
	S20.475,22.266,19.5,22.266z"/>
</svg>

<svg width="26" height="26" viewBox="0 0 26 26" fill="none" xmlns="http://www.w3.org/2000/svg">
<g clip-path="url(#clip0)">
<path d="M20 12C19.365 10.033 18.656 9 17 9H9C7.344 9 6.658 10.002 6 12C5.342 13.998 4 18 4 18H22C22 18 20.64 13.981 20 12ZM6.304 17.533C6.304 17.533 7.603 13.526 7.9 12.626C8.436 11 8.66 11 9 11H17C17.321 11 17.576 11 18.097 12.614C18.386 13.51 19.745 17.533 19.745 17.533H6.304Z" fill="#333333"/>
<path d="M8 23V25C8 25.552 7.552 26 7 26H5C4.448 26 4 25.552 4 25V23H8Z" fill="#333333"/>
<path d="M22 23V25C22 25.552 21.552 26 21 26H19C18.448 26 18 25.552 18 25V23H22Z" fill="#333333"/>
<path d="M10 10V8C10 7.448 10.448 7 11 7H15C15.552 7 16 7.448 16 8V10H10Z" fill="#333333"/>
<path d="M22 17H4C3.449 17 3 17.449 3 18V23C3 23.551 3.449 24 4 24H7H19H22C22.551 24 23 23.551 23 23V18C23 17.449 22.551 17 22 17ZM6.5 22.266C5.524 22.266 4.734 21.476 4.734 20.5C4.734 19.524 5.524 18.734 6.5 18.734C7.475 18.734 8.266 19.524 8.266 20.5C8.266 21.476 7.475 22.266 6.5 22.266ZM19.5 22.266C18.524 22.266 17.734 21.476 17.734 20.5C17.734 19.524 18.524 18.734 19.5 18.734C20.475 18.734 21.266 19.524 21.266 20.5C21.266 21.476 20.475 22.266 19.5 22.266Z" fill="#333333"/>
</g>
<defs>
<clipPath id="clip0">
<rect width="26" height="26" fill="white"/>
</clipPath>
</defs>
</svg>
